src/cart/components/img/Visa.svg

<svg height="43" viewBox="0 0 66 43" width="66" xmlns="http://www.w3.org/2000/svg"><g fill="none" fill-rule="evenodd"><path d="m4 0h58c2.209139 0 4 1.790861 4 4v35c0 2.209139-1.790861 4-4 4h-58c-2.209139 0-4-1.790861-4-4v-35c0-2.209139 1.790861-4 4-4z" fill="#fff"/><g transform="translate(12 15)"><g fill="#00579f"><path d="m16.7081514 0-2.3081514 11.8181818h3.6902919l2.3097081-11.8181818z"/><path d="m30.4843875.55553333c-.6727159-.2547037-1.7267727-.5277037-3.0433295-.5277037-3.3549887 0-5.7186819 1.70444444-5.7387273 4.14724074-.0188523 1.8057963 1.6873977 2.8132963 2.9753182 3.41442593 1.3215681.61581481 1.7659091 1.0087037 1.7597045 1.55879629-.0083523.84235185-1.0554886 1.22729631-2.0315114 1.22729631-1.359034 0-2.080909-.1904259-3.1960568-.65962964l-.4376591-.19981482-.4765568 2.81329626c.7932273.3507593 2.2596477.6548149 3.7823864.670463 3.5692841 0 5.8864432-1.6849444 5.9129318-4.29361111.0126477-1.42951852-.8920227-2.51766666-2.8509886-3.41442592-1.1867387-.58138889-1.913625-.96946297-1.9059887-1.55807408 0-.5224074.6152046-1.08092592 1.9444091-1.08092592 1.1106137-.01733334 1.9148182.22677777 2.5414773.48148148l.3042614.14492592z"/><path d="m35.0044943 8.3584463c.280875-.72414815 1.3528296-3.51312963 1.3528296-3.51312963-.0200455.03346296.2787272-.72751852.4503068-1.19937037l.2295682 1.08357407s.6500454 2.99987037.7860681 3.62892593zm4.1871137-8.10020371h-2.6238069c-.8127954 0-1.4210795.22364815-1.7780795 1.04216667l-5.0428636 11.51703704h3.5654659s.5832272-1.5484444.7149545-1.8883704c.3896932 0 3.8535.0052963 4.3486705.0052963.1016591.4398334.4130795 1.8830741.4130795 1.8830741h3.1507159z"/><path d="m11.9270455.25530556-3.32444323 8.57012963-.35413636-1.74175926c-.61878409-2.00777778-2.54696591-4.18287037-4.70280682-5.27174074l3.03975 10.99077781 3.59267041-.0040926 5.3456932-12.54331484z"/></g><path d="m5.51870455.2475537h-5.47527273l-.04343182.26144445c4.25989773 1.04024074 7.07843182 3.55429629 8.24846591 6.57462963l-1.19055682-5.77512963c-.20570454-.79564815-.80181818-1.03325926-1.53920454-1.06094445" fill="#f9a51a"/></g></g></svg>

<?xml version="1.0" encoding="UTF-8"?>
<svg width="66px" height="43px" viewBox="0 0 42 43" version="1.1" xmlns="http://www.w3.org/2000/svg" xmlns:xlink="http://www.w3.org/1999/xlink">
    <!-- Generator: Sketch 48.2 (47327) - http://www.bohemiancoding.com/sketch -->
    <title>Visa</title>
    <desc>Created with Sketch.</desc>
    <defs></defs>
    <g id="5-Select-coupon-Copy" stroke="none" stroke-width="1" fill="none" fill-rule="evenodd" transform="translate(-24.000000, -570.000000)">
        <g id="Payment-menthod" transform="translate(16.000000, 340.000000)">
            <g id="Visa" transform="translate(8.000000, 230.000000)">
                <g id="Group" fill="#FFFFFF">
                    <path d="M4,0 L62,0 C64.209139,-4.05812251e-16 66,1.790861 66,4 L66,39 C66,41.209139 64.209139,43 62,43 L4,43 C1.790861,43 2.705415e-16,41.209139 0,39 L0,4 C-2.705415e-16,1.790861 1.790861,4.05812251e-16 4,0 Z" id="Mask-Copy-3"></path>
                </g>
                <g id="Page-1" transform="translate(12.000000, 15.000000)">
                    <polygon id="Fill-1" fill="#00579F" points="16.7081514 0 14.4 11.8181818 18.0902919 11.8181818 20.4 0"></polygon>
                    <g id="Group-10">
                        <path d="M30.4843875,0.555533333 C29.8116716,0.30082963 28.7576148,0.0278296296 27.441058,0.0278296296 C24.0860693,0.0278296296 21.7223761,1.73227407 21.7023307,4.17507037 C21.6834784,5.98086667 23.3897284,6.98836667 24.6776489,7.5894963 C25.999217,8.20531111 26.443558,8.5982 26.4373534,9.14829259 C26.4290011,9.99064444 25.3818648,10.3755889 24.405842,10.3755889 C23.046808,10.3755889 22.324933,10.185163 21.2097852,9.71595926 L20.7721261,9.51614444 L20.2955693,12.3294407 C21.0887966,12.6802 22.555217,12.9842556 24.0779557,12.9999037 C27.6472398,12.9999037 29.9643989,11.3149593 29.9908875,8.70629259 C30.0035352,7.27677407 29.0988648,6.18862593 27.1398989,5.29186667 C25.9531602,4.71047778 25.2262739,4.3224037 25.2339102,3.73379259 C25.2339102,3.21138519 25.8491148,2.65286667 27.1783193,2.65286667 C28.288933,2.63553333 29.0931375,2.87964444 29.7197966,3.13434815 L30.024058,3.27927407 L30.4843875,0.555533333" id="Fill-2" fill="#00579F"></path>
                        <path d="M35.0044943,8.3584463 C35.2853693,7.63429815 36.3573239,4.84531667 36.3573239,4.84531667 C36.3372784,4.87877963 36.6360511,4.11779815 36.8076307,3.6459463 L37.0371989,4.72952037 C37.0371989,4.72952037 37.6872443,7.72939074 37.823267,8.3584463 L35.0044943,8.3584463 Z M39.191608,0.258242593 L36.5678011,0.258242593 C35.7550057,0.258242593 35.1467216,0.481890741 34.7897216,1.30040926 L29.746858,12.8174463 L33.3123239,12.8174463 C33.3123239,12.8174463 33.8955511,11.2690019 34.0272784,10.9290759 C34.4169716,10.9290759 37.8807784,10.9343722 38.3759489,10.9343722 C38.477608,11.3742056 38.7890284,12.8174463 38.7890284,12.8174463 L41.9397443,12.8174463 L39.191608,0.258242593 Z" id="Fill-4" fill="#00579F"></path>
                        <path d="M11.9270455,0.255305556 L8.60260227,8.82543519 L8.24846591,7.08367593 C7.62968182,5.07589815 5.7015,2.90080556 3.54565909,1.81193519 L6.58540909,12.802713 L10.1780795,12.7986204 L15.5237727,0.255305556 L11.9270455,0.255305556" id="Fill-6" fill="#00579F"></path>
                        <path d="M5.51870455,0.247553704 L0.0434318182,0.247553704 L0,0.508998148 C4.25989773,1.54923889 7.07843182,4.06329444 8.24846591,7.08362778 L7.05790909,1.30849815 C6.85220455,0.51285 6.25609091,0.275238889 5.51870455,0.247553704" id="Fill-8" fill="#F9A51A"></path>
                    </g>
                </g>
            </g>
        </g>
    </g>
</svg>
